X: 3
T: Anachreon in Heaven  v.3
T: Star Spangled Banner
P: piffero terzo a0265
O: old guard
F: http://ancients.sudburymuster.org/mus/acn/pdf/fyf02F.pdf
Z: 2019 John Chambers <jc:trillian.mit.edu>
M: 3/4
L: 1/8
K: D
A>F |\
D2 D2 C2 | B,3 zB,2 | B,2 D2 E2 | C3 zA,2 |\
A,3 CDE | E3 zE2 | D2 F2 A2 | F2 D2 :|
z2 |\
z4 AF | D2 F2 A2 | A3 EC2 | A,2 B,2 C2 |\
D3 EFG | A4 G2 | F2 B2 E2 | ABAGFE ||
DCDEFA | GABAGF | E^DEFGA | A2 HA,2 AG |\
FGFEDC | H=C4 BB | A3 G E2 | HD6 |]


